web/static/assets/images/action-item.svg

<?xml version="1.0" encoding="UTF-8"?>
<svg width="170px" height="170px" viewBox="0 0 170 170" version="1.1" xmlns="http://www.w3.org/2000/svg" xmlns:xlink="http://www.w3.org/1999/xlink">
    <!-- Generator: Sketch 44.1 (41455) - http://www.bohemiancoding.com/sketch -->
    <title>rocket-ship</title>
    <desc>Created with Sketch.</desc>
    <defs></defs>
    <g id="Page-1" stroke="none" stroke-width="1" fill="none" fill-rule="evenodd">
        <g id="rocket-ship" fill-rule="nonzero">
            <path d="M51.0441637,118.238932 C58.9591459,126.121851 61.3409609,139.087224 53.4320285,146.975587 C45.5170463,154.858505 21.6619929,163.641637 13.7476157,155.758719 C5.83807829,147.875801 14.6581139,124.105445 22.5676512,116.222527 C30.4814235,108.339004 43.1346263,110.350569 51.0441637,118.238932 Z" id="Shape" fill="#F8E71C"></path>
            <path d="M124.129039,100.710178 C136.045979,125.417651 106.965694,182.927865 93.5187544,166.653843 C88.0660498,160.057117 88.4260142,149.532847 74.1901779,135.980036 C74.1690036,136.064733 79.3730605,136.901423 85.4664413,131.384591 C99.5274377,120.552384 124.129039,100.80032 124.129039,100.710178 Z" id="Shape" fill="#E64C3C"></path>
            <path d="M74.052242,45.3760854 C47.3434875,33.2734164 -14.518363,62.1637367 3.11142349,75.753452 C10.2586833,81.2648399 21.5984698,80.9629537 36.2898577,95.336121 C36.1997153,95.3572954 35.2734875,90.1266192 41.1920285,84.0332384 C52.7804626,69.9619573 73.9518149,45.3760854 74.052242,45.3760854 Z" id="Shape" fill="#E64C3C"></path>
            <path d="M62.288968,42.6337011 L61.1346619,42.5756228 C55.2741993,49.7331673 40.9536655,67.3786833 32.2237722,78.5436299 C28.6446975,82.4294306 27.676121,85.9607117 27.4698221,88.0466904 C29.1801068,89.2221708 30.9430249,90.577331 32.7640214,92.1339502 C33.2086833,90.0267972 34.3787189,87.0883986 37.3062278,83.9067972 C48.450605,69.6443416 68.7955516,44.709395 68.8911388,44.7142349 C66.8946975,43.7613879 64.6496085,43.110427 62.288968,42.6337011 Z" id="Shape" fill="#CF5349"></path>
            <path d="M124.293594,101.101601 C120.810107,104.034555 98.7337011,122.135018 85.6146619,132.463879 C81.2787544,136.476726 77.4298577,137.228719 75.5084342,137.302527 C77.3929537,139.197936 79.0239858,141.034662 80.410605,142.80847 C82.1366192,142.835089 86.292242,142.289395 90.982669,137.953488 C101.962491,129.302847 119.1579,115.26847 126.532633,109.174484 C126.135765,106.253025 125.404947,103.52637 124.293594,101.101601 Z" id="Shape" fill="#CF5349"></path>
            <path d="M32.3133096,111.457082 C33.4143772,116.391317 36.7974377,122.272954 42.0650178,127.530249 C47.3059786,132.760925 53.1670463,136.127651 58.0958363,137.250498 C58.9325267,130.622313 56.1901423,123.364342 51.0441637,118.239537 C45.9248043,113.135302 38.8307829,110.552028 32.3133096,111.457082 Z" id="Shape" fill="#D7B354"></path>
            <path d="M168.504484,0.92683274 C172.485872,4.69103203 166.624804,60.5756584 128.428043,98.5183274 C104.779288,122.013416 89.0927046,131.108719 85.339395,134.364733 C74.9579004,139.071495 68.0701779,141.60153 47.497153,121.156157 C26.9719217,100.763416 30.9212456,95.1092527 35.4743416,85.34121 C38.8519573,81.5503915 48.2067972,65.8008897 71.8609964,42.3003559 C110.041423,4.36252669 164.337972,-2.76839858 168.504484,0.92683274 Z" id="Shape" fill="#EBEBEB"></path>
            <path d="M120.756868,48.5897509 C128.989466,56.8380783 128.989466,70.210605 120.756868,78.4643772 C112.519431,86.7127046 99.1729181,86.7127046 90.9348754,78.4643772 C82.7022776,70.210605 82.7022776,56.8380783 90.9348754,48.5897509 C99.1729181,40.3359786 112.519431,40.3359786 120.756868,48.5897509 Z" id="Shape" fill="#3C3D43"></path>
            <path d="M113.371851,56.0751957 C117.522633,60.1993594 117.522633,66.8856228 113.371851,71.0097865 C109.226512,75.1339502 102.492456,75.1339502 98.3368327,71.0097865 C94.1914947,66.8856228 94.1914947,60.1993594 98.3368327,56.0751957 C102.497295,51.951032 109.226512,51.951032 113.371851,56.0751957 Z" id="Shape" fill="#CCD0D2"></path>
        </g>
    </g>
</svg>

<?xml version="1.0" encoding="UTF-8"?>
<svg version="1.1" viewBox="0 0 170 170" xmlns="http://www.w3.org/2000/svg">
<title>rocket-ship</title>
<desc>Created with Sketch.</desc>
<g fill="none" fill-rule="evenodd">
<g fill-rule="nonzero">
<path d="m51.044 118.24c7.915 7.8829 10.297 20.848 2.3879 28.737-7.915 7.8829-31.77 16.666-39.684 8.7831-7.9095-7.8829 0.9105-31.653 8.82-39.536 7.9138-7.8835 20.567-5.872 28.477 2.0164z" fill="#F8E71C"/>
<path d="m124.13 100.71c11.917 24.707-17.163 82.218-30.61 65.944-5.4527-6.5967-5.0927-17.121-19.329-30.674-0.021174 0.084697 5.1829 0.92139 11.276-4.5954 14.061-10.832 38.663-30.584 38.663-30.674z" fill="#E64C3C"/>
<path d="m74.052 45.376c-26.709-12.103-88.571 16.788-70.941 30.377 7.1473 5.5114 18.487 5.2095 33.178 19.583-0.090142 0.021174-1.0164-5.2095 4.9022-11.303 11.588-14.071 32.76-38.657 32.86-38.657z" fill="#E64C3C"/>
<path d="m62.289 42.634l-1.1543-0.058078c-5.8605 7.1575-20.181 24.803-28.911 35.968-3.5791 3.8858-4.5477 7.4171-4.754 9.5031 1.7103 1.1755 3.4732 2.5306 5.2942 4.0873 0.44466-2.1072 1.6147-5.0456 4.5422-8.2272 11.144-14.262 31.489-39.197 31.585-39.193-1.9964-0.95285-4.2415-1.6038-6.6022-2.0805z" fill="#CF5349"/>
<path d="m124.29 101.1c-3.4835 2.933-25.56 21.033-38.679 31.362-4.3359 4.0128-8.1848 4.7648-10.106 4.8386 1.8845 1.8954 3.5156 3.7321 4.9022 5.5059 1.726 0.026619 5.8816-0.51908 10.572-4.855 10.98-8.6506 28.175-22.685 35.55-28.779-0.39687-2.9215-1.1277-5.6481-2.239-8.0729z" fill="#CF5349"/>
<path d="m32.313 111.46c1.1011 4.9342 4.4841 10.816 9.7517 16.073 5.241 5.2307 11.102 8.5974 16.031 9.7202 0.83669-6.6282-1.9057-13.886-7.0517-19.011-5.1194-5.1042-12.213-7.6875-18.731-6.7825z" fill="#D7B354"/>
<path d="m168.5 0.92683c3.9814 3.7642-1.8797 59.649-40.076 97.591-23.649 23.495-39.335 32.59-43.089 35.846-10.381 4.7068-17.269 7.2368-37.842-13.209-20.525-20.393-16.576-26.047-12.023-35.815 3.3776-3.7908 12.732-19.54 36.387-43.041 38.18-37.938 92.477-45.069 96.643-41.374z" fill="#EBEBEB"/>
<path d="m120.76 48.59c8.2326 8.2483 8.2326 21.621 0 29.875-8.2374 8.2483-21.584 8.2483-29.822 0-8.2326-8.2538-8.2326-21.626 0-29.875 8.238-8.2538 21.585-8.2538 29.822 0z" fill="#3C3D43"/>
<path d="m113.37 56.075c4.1508 4.1242 4.1508 10.81 0 14.935-4.1453 4.1242-10.879 4.1242-15.035 0-4.1453-4.1242-4.1453-10.81 0-14.935 4.1605-4.1242 10.89-4.1242 15.035 0z" fill="#CCD0D2"/>
</g>
</g>
</svg>
